X: 305582
M: 6/8
L: 1/8
K: G
[|\
f2f fef | gag fed | fed fed | fga a3 |\
f2f fef | gag fed | def efg | a2A d3 |]


